X: 1
T: Erik's
M: 4/4
L: 1/8
R: reel
K: Gmin
|:G,2 B,D GFED|~E3 G FEDB,|G,2 B,D GBdf|gabg a~f3|
g2 dg fgdc|(3Bcd BG AF~F2|GFDG FDCF|DGGF G2 DB,:|
|:B2 FB DBFB|BcdB cAAc|~B3 d ~c3 A|BGGF G3 A|
B2 fB dBFB|D~B3 A~F3|GFDG FDCF|1DGGF G2zA:|2DGGF GFDB,||
